X:1
T:Title
%%score { ( 1 3 ) | ( 2 4 ) }
L:1/8
M:4/4
K:Ab
V:1 treble nm="Grand Piano"
V:3 treble 
V:2 bass 
V:4 bass 
V:1
 z4 z2 z[Q:1/4=90] E | c4 B4 | A4 G4 | d4 z4 |[M:7/8] c-c-c- c3 z |[M:1/8] z |[M:4/4] e4 =d4 | %7
 d4 c4 | .c2 z2 z4 | B8 |[M:1/8] E |[M:4/4] E F2 G [Gd]2 [DG]2 | c6 z2 | F G2 =A [Ae]2 [Ec]2 | %14
 d6 z2 | [Ec]3 [EB] [Ee]3 [EA] | [=EA]3 [EG] c3 F | z4 ._c2 z2 | [Ae] [EAc]2 E [DGB]3 [CA] | %19
[M:7/8] [CEA]-[CEA]-[CEA]- [CEA]3 z |] %20
V:2
 z8 | z C .C2 z C .C2 | z D .D2 z D .D2 | E,,E,G,E, E,,E,[G,D]E, |[M:7/8] z E,F, C, E,2 z | %5
[M:1/8][K:treble] c |[M:4/4][K:bass] z E .E2 z =D .D2 | z D .D2 z C .C2 | %8
 A,3 G, [B,,F,]2 [B,,A,]2 | [G,DE]2 [A,D]2 [G,D]4 |[M:1/8] [E,G,D] | %11
[M:4/4] [E,G,D] [E,A,D]2 [E,B,D] [E,B,]2 [E,B,]2 | [A,,A,]2 [A,,E,]2 [A,,A,]2 z F, | %13
 [F,=A,E] [F,B,E]2 [F,CE] [F,C]2 [F,A,]2 | [B,,B,]2 [B,,F,]2 [B,,B,]2 z [B,,B,] | %15
 [E,G,]3 [D,G,] [C,A,]3 [C,A,] | [C,B,]3 [C,B,] [F,A,F]3 F, | [=D,F,A,B,]2 z A, [D,A,_C]2 z A, | %18
 [E,C] E,2 E, E,3 A,, |[M:7/8] A,,-A,,-A,,- A,,3 z |] %20
V:3
 x8 | z EEG z EEF | z EEF z EEE | z2 DE FGAB |[M:7/8] z2 [CE]2 [CE]2 z |[M:1/8] x | %6
[M:4/4] z =AAe z _AAB | z GGd z AAc | =D- [D-F]2 [DG] [DA]2 [DF]2 | z2 F2 E4 |[M:1/8] x | %11
[M:4/4] x8 | C2 C2 E2 z F | x8 | D2 D2 F2 z [Fd] | x8 | x8 | AF z A F-[FA] z A | x8 |[M:7/8] x7 |] %20
V:4
 x8 | A,,4 C,4 | B,,4 E,,4 | x8 |[M:7/8] A,,-A,,-A,,- A,,3 z |[M:1/8][K:treble] x | %6
[M:4/4][K:bass] F,,4 B,,4 | E,,4 F,,4 | B,,4 z4 | E,8 |[M:1/8] x |[M:4/4] x8 | x8 | x8 | x8 | x8 | %16
 x8 | x8 | x8 |[M:7/8] x7 |] %20

